src/main/content/img/Header_TwitterBird.svg

<?xml version="1.0" encoding="UTF-8"?>
<svg width="68px" height="68px" viewBox="0 0 68 68" version="1.1" xmlns="http://www.w3.org/2000/svg" xmlns:xlink="http://www.w3.org/1999/xlink">
    <!-- Generator: Sketch 52.5 (67469) - http://www.bohemiancoding.com/sketch -->
    <title>Group</title>
    <desc>Created with Sketch.</desc>
    <g id="v1_Navigation" stroke="none" stroke-width="1" fill="none" fill-rule="evenodd">
        <g id="Docs_Mobile-Start" transform="translate(-28.000000, -460.000000)">
            <g id="Group" transform="translate(29.000000, 461.000000)">
                <path d="M41.1895611,18.413635 C37.1259707,19.8042324 34.5574749,23.3876025 34.8488267,27.3096154 L34.9459439,28.8227006 L33.3205077,28.637768 C27.4040223,27.9268581 22.2338064,25.5179304 17.8430842,21.4710279 L15.6962817,19.4631878 L15.1468025,20.9450506 C13.976284,24.2498209 14.7251091,27.7419255 17.1632634,30.0908101 C18.4641235,31.3877403 18.170216,31.572673 15.928852,30.80172 C15.1493582,30.5543426 14.464426,30.36941 14.400533,30.4630771 C14.1730742,30.6792322 14.952568,33.4892476 15.5710515,34.6036468 C16.4169939,36.1503562 18.1395474,37.6610397 20.0256667,38.5592839 L21.6204342,39.2701938 L19.7317592,39.2966127 C17.9120885,39.2966127 17.8456399,39.3278351 18.0424301,39.9787019 C18.6915823,41.986542 21.2600781,44.1192716 24.1224814,45.0463365 L26.1389423,45.6948016 L24.3831646,46.6843113 C21.7814444,48.1085328 18.7248066,48.9107081 15.6681688,48.9683495 C14.2037428,48.9995719 13,49.1220597 13,49.2157269 C13,49.5231474 16.9690289,51.2523876 19.2742858,51.9344768 C26.2002795,53.9423169 34.4271333,53.0752951 40.6043019,49.648037 C44.9950241,47.2078868 49.3831906,42.3564073 51.4328758,37.6586379 C52.5395014,35.1584447 53.6435712,30.585565 53.6435712,28.3927923 C53.6435712,26.9709725 53.7406885,26.7860399 55.5603591,25.088022 C56.6337604,24.0985123 57.640713,23.0177372 57.8375032,22.7103167 C58.164635,22.1218947 58.128855,22.1218947 56.4727502,22.6478719 C53.7100199,23.5749368 53.3189951,23.452449 54.6863038,22.0618516 C55.6932564,21.0723419 56.8969993,19.2806569 56.8969993,18.7570814 C56.8969993,18.6658159 56.4088573,18.8195261 55.8568223,19.0957242 C55.2715631,19.4055465 53.970703,19.8690789 52.994419,20.145277 L51.2386413,20.6712542 L49.6464295,19.6481204 C48.7672627,19.0933225 47.535407,18.4736781 46.8836991,18.2887455 C45.2224829,17.8564354 42.6872114,17.9188802 41.1895611,18.413635 Z" id="Combined-Shape-Copy-7" fill="#FAFFC7" fill-rule="nonzero"></path>
                <circle id="Oval-6" stroke="#C9D6FE" opacity="0.200223214" cx="33" cy="33" r="33"></circle>
            </g>
        </g>
    </g>
</svg>

<svg width="68" height="68" xmlns="http://www.w3.org/2000/svg"><g transform="translate(1 1)" fill="none" fill-rule="evenodd"><path d="M41.19 18.414c-4.064 1.39-6.633 4.974-6.341 8.896l.097 1.513-1.625-.185c-5.917-.711-11.087-3.12-15.478-7.167l-2.147-2.008-.55 1.482c-1.17 3.305-.42 6.797 2.017 9.146 1.301 1.297 1.007 1.482-1.234.71-.78-.247-1.465-.432-1.528-.338-.228.216.552 3.026 1.17 4.14.846 1.547 2.569 3.058 4.455 3.956l1.594.711-1.888.027c-1.82 0-1.886.03-1.69.682.65 2.008 3.218 4.14 6.08 5.067l2.017.649-1.756.99c-2.602 1.424-5.658 2.226-8.715 2.283-1.464.032-2.668.154-2.668.248 0 .307 3.969 2.036 6.274 2.718 6.926 2.008 15.153 1.141 21.33-2.286 4.391-2.44 8.78-7.292 10.829-11.99 1.107-2.5 2.21-7.072 2.21-9.265 0-1.422.098-1.607 1.917-3.305 1.074-.99 2.08-2.07 2.278-2.378.327-.588.29-.588-1.365-.062-2.763.927-3.154.804-1.787-.586 1.007-.99 2.211-2.781 2.211-3.305 0-.091-.488.063-1.04.339-.585.31-1.886.773-2.863 1.05l-1.755.525-1.593-1.023c-.879-.555-2.11-1.174-2.762-1.36-1.662-.432-4.197-.37-5.694.126z" fill="#FAFFC7" fill-rule="nonzero"/><circle stroke="#C9D6FE" opacity=".2" cx="33" cy="33" r="33"/></g></svg>
